X:1
T:Billy Boy
M:2/4
L:1/8
K:G
B-c|d-d dd| g2 Bc| d2 de| d2B-c|d-d dd| g2 cB| BA z2| z2| AB| cc cc|\
 c2 dc|B-A Bc| d2 g3/2 e/2| d2 Bd| dc AF| AG||
